svg/u1f507.svg

<svg viewBox="0 0 128 128" xmlns="http://www.w3.org/2000/svg">
  <g>
    <path d="M64,4C30.86,4,4,30.86,4,64s26.86,60,60,60s60-26.86,60-60S97.14,4,64,4z M114,64 c0.04,11.53-3.96,22.71-11.3,31.6L32.4,25.3C41.29,17.96,52.47,13.96,64,14C91.61,14,114,36.39,114,64z M14,64 c-0.04-11.53,3.96-22.71,11.3-31.6l70.3,70.3c-8.89,7.34-20.07,11.34-31.6,11.3C36.39,114,14,91.61,14,64z" fill="#CC3333"/>
    <circle cx="60.1" cy="63.1" r="56.1" fill="#F44336"/>
    <path d="M95.6,102.7c-8.89,7.34-20.07,11.34-31.6,11.3c-27.61,0-50-22.39-50-50 c-0.04-11.53,3.96-22.71,11.3-31.6l7.1-7.1C41.29,17.96,52.47,13.96,64,14c27.61,0,50,22.39,50,50c0.04,11.53-3.96,22.71-11.3,31.6 " fill="#FFFFFF"/>
    <path d="M95.6,102.7c-8.89,7.34-20.07,11.34-31.6,11.3c-27.61,0-50-22.39-50-50 c-0.04-11.53,3.96-22.71,11.3-31.6l7.1-7.1C41.29,17.96,52.47,13.96,64,14c27.61,0,50,22.39,50,50c0.04,11.53-3.96,22.71-11.3,31.6 " fill="#231F20"/>
    <path d="M96.4,103.2c-20.49,16.74-50.66,13.7-67.4-6.79C14.59,78.78,14.59,53.44,29,35.8l6.8-6.8 c8.53-7.03,19.25-10.85,30.3-10.8c26.45,0,47.9,21.44,47.9,47.9c0,11.04-3.82,21.75-10.8,30.3" fill="#414042"/>
    <g opacity="0.2">
      <path d="M75.65,22.5c2.17,0,4.2,1.44,4.2,3.82v29.42c0.19-0.03,0.39-0.06,0.59-0.06 c1.96,0,3.56,1.6,3.56,3.56v9.51c0,1.96-1.6,3.56-3.56,3.56c-0.2,0-0.4-0.03-0.59-0.06v29.42c0,2.39-2.04,3.83-4.21,3.83 c-1.26,0-2.56-0.49-3.53-1.55C58.48,88.94,49.41,83.4,49.41,83.4H38.35c-1.53,0-2.77-1.24-2.77-2.77V47.37 c0-1.53,1.24-2.77,2.77-2.77h11.07c0,0,9-5.48,22.69-20.54C73.08,22.99,74.39,22.5,75.65,22.5" fill="#424242"/>
    </g>
    <g>
      <path d="M82.44,71.73c1.83,0,3.32-1.49,3.32-3.32v-8.86c0-1.83-1.49-3.32-3.32-3.32s-3.32,1.49-3.32,3.32 v8.86C79.14,70.24,80.63,71.73,82.44,71.73z" fill="#FAFAFA"/>
      <path d="M57.93,82.05H39.88c-1.43,0-2.58-1.16-2.58-2.58V48.49c0-1.43,1.16-2.58,2.58-2.58h18.05 L57.93,82.05z" fill="#FAFAFA"/>
      <rect height="36.14" fill="#FAFAFA" width="2.58" x="42.46" y="45.91"/>
      <path d="M71.34,26.78C58.58,40.81,50.2,45.91,50.2,45.91v36.14c0,0,8.45,5.16,21.15,19.15 c2.46,2.71,7.21,1.4,7.21-2.12v-70.2C78.55,25.36,73.79,24.06,71.34,26.78z" fill="#FAFAFA"/>
      <rect height="77.99" fill="#414042" width="3.62" x="78.54" y="24.8"/>
    </g>
    <path d="M51.64,44.75c0.79,1.72,1.9,6.17,10.29,16.1c0.28,0.34,1.47,1.87,0.72,2.62 c-0.5,0.5-1.41-0.11-2.46-1.16c-4.09-4.09-7.93-9.28-10.8-15.31C47.75,43.59,50.55,42.38,51.64,44.75z" fill="#FFFFFF"/>
    <polyline points="23.4,35.6 95,102.1 97,100.2 30.6,33.4 " opacity="0.8" fill="#231F20" enable-background="new "/>
    <path d="M103.9,96.8L25.3,18.9L18.2,26l78.6,77.9" fill="#F44336"/>
    <path d="M45,10.9c1.7-0.4,4.2-1.6,5.9-1.1c1.09,0.3,1.75,1.4,1.5,2.5c-0.37,0.81-1.12,1.37-2,1.5 c-3.9,0.97-7.68,2.35-11.3,4.1c-7.18,3.78-13.38,9.19-18.1,15.8c-1.9,2.7-3.4,5.5-5.8,7.8c-0.21,0.23-0.49,0.37-0.8,0.4 c-0.17,0.03-0.35-0.01-0.5-0.1c-1.2-0.5-1.4-1.1-1.2-2.3c0.18-1.01,0.52-1.99,1-2.9c1.01-1.76,2.11-3.46,3.3-5.1 c1.89-2.91,4.11-5.59,6.6-8C30.4,17.2,39.2,12.4,45,10.9z" fill="#FF8A80"/>
    <polygon points="32.4,25.3 30.4,27.3 101.5,98.4 103.3,96.2 " fill="#CC3333"/>
  </g>
</svg>

<svg viewBox="0 0 128 128" xmlns="http://www.w3.org/2000/svg">
  <defs/>
  <path d="M64,4 C30.86,4 4,30.86 4,64 C4,97.14 30.86,124 64,124 C97.14,124 124,97.14 124,64 C124,30.86 97.14,4 64,4 Z M114,64 C114.04,75.53 110.04,86.71 102.7,95.6 L32.4,25.3 C41.29,17.96 52.47,13.96 64,14 C91.61,14 114,36.39 114,64 Z M14,64 C13.96,52.47 17.96,41.29 25.3,32.4 L95.6,102.7 C86.71,110.04 75.53,114.04 64,114 C36.39,114 14,91.61 14,64 Z" fill="#CC3333"/>
  <path d="M116.2,63.1 A56.1 56.1 0 1 1 4,63.1 A56.1 56.1 0 1 1 116.2,63.1 Z" fill="#F44336"/>
  <path d="M95.6,102.7 C86.71,110.04 75.53,114.04 64,114 C36.39,114 14,91.61 14,64 C13.96,52.47 17.96,41.29 25.3,32.4 L32.4,25.3 C41.29,17.96 52.47,13.96 64,14 C91.61,14 114,36.39 114,64 C114.04,75.53 110.04,86.71 102.7,95.6" fill="#FFFFFF"/>
  <path d="M95.6,102.7 C86.71,110.04 75.53,114.04 64,114 C36.39,114 14,91.61 14,64 C13.96,52.47 17.96,41.29 25.3,32.4 L32.4,25.3 C41.29,17.96 52.47,13.96 64,14 C91.61,14 114,36.39 114,64 C114.04,75.53 110.04,86.71 102.7,95.6" fill="#231F20"/>
  <path d="M96.4,103.2 C75.91,119.94 45.74,116.9 29,96.41 C14.59,78.78 14.59,53.44 29,35.8 L35.8,29 C44.33,21.97 55.05,18.15 66.1,18.2 C92.55,18.2 114,39.64 114,66.1 C114,77.14 110.18,87.85 103.2,96.4" fill="#414042"/>
  <path d="M75.65,22.5 C77.82,22.5 79.85,23.94 79.85,26.32 L79.85,55.74 C80.04,55.71 80.24,55.68 80.44,55.68 C82.4,55.68 84,57.28 84,59.24 L84,68.75 C84,70.71 82.4,72.31 80.44,72.31 C80.24,72.31 80.04,72.28 79.85,72.25 L79.85,101.67 C79.85,104.06 77.81,105.5 75.64,105.5 C74.38,105.5 73.08,105.01 72.11,103.95 C58.48,88.94 49.41,83.4 49.41,83.4 L38.35,83.4 C36.82,83.4 35.58,82.16 35.58,80.63 L35.58,47.37 C35.58,45.84 36.82,44.6 38.35,44.6 L49.42,44.6 C49.42,44.6 58.42,39.12 72.11,24.06 C73.08,22.99 74.39,22.5 75.65,22.5" fill="#424242" opacity="0.2"/>
  <path d="M82.44,71.73 C84.27,71.73 85.76,70.24 85.76,68.41 L85.76,59.55 C85.76,57.72 84.27,56.23 82.44,56.23 C80.61,56.23 79.12,57.72 79.12,59.55 L79.12,68.41 C79.14,70.24 80.63,71.73 82.44,71.73 Z" fill="#FAFAFA"/>
  <path d="M57.93,82.05 L39.88,82.05 C38.45,82.05 37.3,80.89 37.3,79.47 L37.3,48.49 C37.3,47.06 38.46,45.91 39.88,45.91 L57.93,45.91 L57.93,82.05 Z" fill="#FAFAFA"/>
  <path d="M42.46,45.91 L45.04,45.91 L45.04,82.05 L42.46,82.05 L42.46,45.91 Z" fill="#FAFAFA"/>
  <path d="M71.34,26.78 C58.58,40.81 50.2,45.91 50.2,45.91 L50.2,82.05 C50.2,82.05 58.65,87.21 71.35,101.2 C73.81,103.91 78.56,102.6 78.56,99.08 L78.56,28.88 C78.55,25.36 73.79,24.06 71.34,26.78 Z" fill="#FAFAFA"/>
  <path d="M78.54,24.8 L82.16,24.8 L82.16,102.79 L78.54,102.79 L78.54,24.8 Z" fill="#414042"/>
  <path d="M51.64,44.75 C52.43,46.47 53.54,50.92 61.93,60.85 C62.21,61.19 63.4,62.72 62.65,63.47 C62.15,63.97 61.24,63.36 60.19,62.31 C56.1,58.22 52.26,53.03 49.39,47 C47.75,43.59 50.55,42.38 51.64,44.75 Z" fill="#FFFFFF"/>
  <path d="M23.4,35.6 L95,102.1 L97,100.2 L30.6,33.4" fill="#231F20" opacity="0.8"/>
  <path d="M103.9,96.8 L25.3,18.9 L18.2,26 L96.8,103.9" fill="#F44336"/>
  <path d="M45,10.9 C46.7,10.5 49.2,9.3 50.9,9.8 C51.99,10.1 52.65,11.2 52.4,12.3 C52.03,13.11 51.28,13.67 50.4,13.8 C46.5,14.77 42.72,16.15 39.1,17.9 C31.92,21.68 25.72,27.09 21,33.7 C19.1,36.4 17.6,39.2 15.2,41.5 C14.99,41.73 14.71,41.87 14.4,41.9 C14.23,41.93 14.05,41.89 13.9,41.8 C12.7,41.3 12.5,40.7 12.7,39.5 C12.88,38.49 13.22,37.51 13.7,36.6 C14.71,34.84 15.81,33.14 17,31.5 C18.89,28.59 21.11,25.91 23.6,23.5 C30.4,17.2 39.2,12.4 45,10.9 Z" fill="#FF8A80"/>
  <path d="M32.4,25.3 L30.4,27.3 L101.5,98.4 L103.3,96.2 Z" fill="#CC3333"/>
</svg>
